X:1
T:Title
%%score ( 1 2 3 ) ( 4 5 )
L:1/8
Q:1/4=110
M:4/4
K:D
V:1 treble nm="Choir Aahs, Unnamed-000"
V:2 treble 
V:3 treble 
V:4 bass nm="Choir Aahs, Unnamed-001"
V:5 bass 
V:1
 [DF]2 [DF][DG] [DA]3 [Dd] | z4 B4 | [FA]2 [DA]2 [^DA]2 [EG][=DF] | [DF]4 [CE]4 | %4
w: By~Peter~Christian~Lutkin,~1905 * * * *||||
 [CF]2 [^A,F][B,F] [CF]3 [A,F] | z4 z2 .c2 | z4 z2 .G2 | D8 |] %8
w: ||||
V:2
 x8 | [Gc]2 [CG]2 D2 z B | x8 | x8 | x8 | [FB]2 [Ec]2 [Dd]2 G-[GB] | A3 [DF] [DA]2 C-[CE] | x8 |] %8
V:3
 x8 | z4 z2 E2 | x8 | x8 | x8 | x8 | x8 | x8 |] %8
V:4
 [D,A,]2 [D,A,][E,A,] [F,A,]3 [F,A,] | [E,G,]2 [E,A,]2 [A,,B,]2 [G,C]2 | z4 z2 B,2 | A,8 | %4
 [F,^A,]2 F,[F,^G,] [F,A,]3 [E,F,] | [D,^G,]2 [C,^A,]2 [B,,B,]2 [E,C]2 | z4 z2 .A,2 | [D,F,]8 |] %8
V:5
 x8 | x8 | [F,D]2 [F,A,]2 [F,=C]2 G,^G, | x8 | x8 | x8 | [F,D]3 [F,A,] [E,B,]2 A,,-[A,,G,] | x8 |] %8

